public/static/icons/ic_notification_package.svg

<svg height="24" viewBox="0 0 24 24" width="24" xmlns="http://www.w3.org/2000/svg" xmlns:xlink="http://www.w3.org/1999/xlink"><linearGradient id="a" x1="0%" x2="100%" y1=".004%" y2="99.996%"><stop offset="0" stop-color="#5be584"/><stop offset="1" stop-color="#00ab55"/></linearGradient><linearGradient id="b"><stop offset="0" stop-color="#ffe16a"/><stop offset="1" stop-color="#b78103"/></linearGradient><linearGradient id="c" x1="0%" x2="100%" xlink:href="#b" y1="33.335%" y2="66.665%"/><linearGradient id="d" x1="46.26%" x2="53.74%" xlink:href="#b" y1="0%" y2="100%"/><g fill="none" fill-rule="evenodd"><path d="m15.048 20.02c-1.0907987-1.8799016-.7822977-4.2581652.7520392-5.7975424 1.534337-1.5393772 3.9115761-1.8556761 5.7950449-.7710485 1.8834688 1.0846277 2.8030986 3.2994848 2.2418005 5.3992029-.5612982 2.0997182-2.4634376 3.5602579-4.6368846 3.5604215-1.7129421.0063742-3.2977706-.9062763-4.152-2.3910335z" fill="url(#a)"/><path d="m19.2 5.5775v7.2335c-1.7166788.0001456-3.3026139.9169895-4.1593869 2.4045801-.856773 1.4875907-.8539564 3.3194709.0073869 4.8044199l-5.448 3.145v-12.046l9.599-5.542z" fill="#ffe16a"/><path d="m9.6 11.119-3.343-1.93 9.6-5.542 3.342 1.93z" fill="#ffc107"/><path d="m15.857 3.647-9.6 5.542-2.446-1.412 9.598-5.542z" fill="url(#c)"/><path d="m9.6.035 3.809 2.2-9.598 5.542h-.001l-3.809-2.2z" fill="#ffe16a"/><path d="m9.6 11.119v12.046l-9.6-5.543v-12.045h.001l3.809 2.2v7.987l1.163-.48 1.267 1.44v-7.525l.017-.01z" fill="#ffc107"/><path d="m6.257 9.189-.017.01v7.525l-1.267-1.44-1.163.48v-7.987h.001z" fill="url(#d)"/><path d="m1.2415 17.7185c-.19329966 0-.35-.1567003-.35-.35v-1.296c0-.1932997.15670034-.35.35-.35s.35.1567003.35.35v1.296c0 .1932997-.15670034.35-.35.35zm1.421.8315c-.19329966 0-.35-.1567003-.35-.35v-1.1675c0-.1932997.15670034-.35.35-.35s.35.1567003.35.35v1.1675c0 .1932997-.15670034.35-.35.35zm1.4215.8205c-.19329966 0-.35-.1567003-.35-.35v-1.028c0-.1932997.15670034-.35.35-.35s.35.1567003.35.35v1.028c0 .1932997-.15670034.35-.35.35zm1.421.8205c-.19329966 0-.35-.1567003-.35-.35v-.8885c0-.1932997.15670034-.35.35-.35s.35.1567003.35.35v.8885c0 .1932997-.15670034.35-.35.35zm1.421.8395c-.19329966 0-.35-.1567003-.35-.35v-.768c0-.1932997.15670034-.35.35-.35s.35.1567003.35.35v.768c0 .1932997-.15670034.35-.35.35z" fill="#ffe16a"/><path d="m11.5888 18.0470503c-.1585311.0002073-.2974056-.1061671-.3384968-.2592803-.0410911-.1531132.0258634-.3147262.1631968-.39392l1.5945-.9205c.1082961-.0625215.2417207-.0625184.350014.000008.1082932.0625265.175.1780771.175.3031251 0 .1250479-.0667179.2405954-.175014.3031169l-1.5945.9204c-.0530713.0308005-.1133385.0470316-.1747.0470503z" fill="#b78103"/><path d="m18.11 19.3200003c-.1025165.0001366-.1999191-.0447622-.2664-.1228003l-1.16-1.35895c-.0822583-.0949733-.1072983-.2267514-.0656083-.3452769s.1437126-.2056108.2673136-.2281755c.1236009-.0225647.2498135.0228536.3306947.1190024l.93805 1.09895 3.075-2.50175c.0969003-.0798306.2291361-.1016444.3465425-.0571661.1174065.0444783.2019957.1484341.2216779.2724309s-.0285581.2490369-.1264204.3276852l-3.34 2.71755c-.0623537.0508655-.1403809.0785998-.22085.0785003z" fill="#005249" fill-rule="nonzero"/><path d="m12.5425 11.3317c-.0771973-.0817777-.1889878-.1214799-.3004729-.1067123-.1114852.0147677-.2090836.082206-.2623271.1812623l-.845 1.572c-.0583242.1084299-.0553868.2395303.0077352.3452392s.1771439.1704773.3002648.1705608c.1305767.0002905.2510292-.0702925.3146-.18435l.1927-.34735v3.00865c0 .1932997.1567003.35.35.35s.35-.1567003.35-.35v-3.51845l.2845.30775c.0631331.0674517.1505922.1068933.2429416.1095598s.1819386-.0316631.2488584-.0953598c.0673574-.0639388.106541-.152027.108923-.2448683.002382-.0928414-.032233-.182823-.096223-.2501317z" fill="#b78103"/></g></svg>

<svg xmlns="http://www.w3.org/2000/svg" width="24" height="24" viewBox="0 0 24 24">
  <defs>
    <linearGradient id="ic_notification_package-a" x1="0%" x2="100%" y1=".004%" y2="99.996%">
      <stop offset="0%" stop-color="#5BE584"/>
      <stop offset="100%" stop-color="#00AB55"/>
    </linearGradient>
    <linearGradient id="ic_notification_package-b" x1="0%" x2="100%" y1="33.335%" y2="66.665%">
      <stop offset="0%" stop-color="#FFE16A"/>
      <stop offset="100%" stop-color="#B78103"/>
    </linearGradient>
    <linearGradient id="ic_notification_package-c" x1="46.26%" x2="53.74%" y1="0%" y2="100%">
      <stop offset="0%" stop-color="#FFE16A"/>
      <stop offset="100%" stop-color="#B78103"/>
    </linearGradient>
  </defs>
  <g fill="none" fill-rule="evenodd">
    <path fill="url(#ic_notification_package-a)" d="M15.048,20.02 C13.9572013,18.1400984 14.2657023,15.7618348 15.8000392,14.2224576 C17.3343762,12.6830804 19.7116153,12.3667815 21.5950841,13.4514091 C23.4785529,14.5360368 24.3981827,16.7508939 23.8368846,18.850612 C23.2755864,20.9503302 21.373447,22.4108699 19.2,22.4110335 C17.4870579,22.4174077 15.9022294,21.5047572 15.048,20.02 Z"/>
    <path fill="#FFE16A" d="M19.2,5.5775 L19.2,12.811 C17.4833212,12.8111456 15.8973861,13.7279895 15.0406131,15.2155801 C14.1838401,16.7031708 14.1866567,18.535051 15.048,20.02 L9.6,23.165 L9.6,11.119 L19.199,5.577 L19.2,5.5775 Z"/>
    <polygon fill="#FFC107" points="9.6 11.119 6.257 9.189 15.857 3.647 19.199 5.577"/>
    <polygon fill="url(#ic_notification_package-b)" points="15.857 3.647 6.257 9.189 3.811 7.777 13.409 2.235"/>
    <polygon fill="#FFE16A" points="9.6 .035 13.409 2.235 3.811 7.777 3.81 7.777 .001 5.577"/>
    <polygon fill="#FFC107" points="9.6 11.119 9.6 23.165 0 17.622 0 5.577 .001 5.577 3.81 7.777 3.81 15.764 4.973 15.284 6.24 16.724 6.24 9.199 6.257 9.189"/>
    <polygon fill="url(#ic_notification_package-c)" points="6.257 9.189 6.24 9.199 6.24 16.724 4.973 15.284 3.81 15.764 3.81 7.777 3.811 7.777"/>
    <path fill="#FFE16A" d="M1.2415 17.7185C1.04820034 17.7185.8915 17.5617997.8915 17.3685L.8915 16.0725C.8915 15.8792003 1.04820034 15.7225 1.2415 15.7225 1.43479966 15.7225 1.5915 15.8792003 1.5915 16.0725L1.5915 17.3685C1.5915 17.5617997 1.43479966 17.7185 1.2415 17.7185L1.2415 17.7185zM2.6625 18.55C2.46920034 18.55 2.3125 18.3932997 2.3125 18.2L2.3125 17.0325C2.3125 16.8392003 2.46920034 16.6825 2.6625 16.6825 2.85579966 16.6825 3.0125 16.8392003 3.0125 17.0325L3.0125 18.2C3.0125 18.3932997 2.85579966 18.55 2.6625 18.55L2.6625 18.55zM4.084 19.3705C3.89070034 19.3705 3.734 19.2137997 3.734 19.0205L3.734 17.9925C3.734 17.7992003 3.89070034 17.6425 4.084 17.6425 4.27729966 17.6425 4.434 17.7992003 4.434 17.9925L4.434 19.0205C4.434 19.2137997 4.27729966 19.3705 4.084 19.3705L4.084 19.3705zM5.505 20.191C5.31170034 20.191 5.155 20.0342997 5.155 19.841L5.155 18.9525C5.155 18.7592003 5.31170034 18.6025 5.505 18.6025 5.69829966 18.6025 5.855 18.7592003 5.855 18.9525L5.855 19.841C5.855 20.0342997 5.69829966 20.191 5.505 20.191L5.505 20.191zM6.926 21.0305C6.73270034 21.0305 6.576 20.8737997 6.576 20.6805L6.576 19.9125C6.576 19.7192003 6.73270034 19.5625 6.926 19.5625 7.11929966 19.5625 7.276 19.7192003 7.276 19.9125L7.276 20.6805C7.276 20.8737997 7.11929966 21.0305 6.926 21.0305L6.926 21.0305z"/>
    <path fill="#B78103" d="M11.5888,18.0470503 C11.4302689,18.0472576 11.2913944,17.9408832 11.2503032,17.78777 C11.2092121,17.6346568 11.2761666,17.4730438 11.4135,17.39385 L13.008,16.47335 C13.1162961,16.4108285 13.2497207,16.4108316 13.358014,16.473358 C13.4663072,16.5358845 13.533014,16.6514351 13.533014,16.7764831 C13.533014,16.901531 13.4662961,17.0170785 13.358,17.0796 L11.7635,18 C11.7104287,18.0308005 11.6501615,18.0470316 11.5888,18.0470503 L11.5888,18.0470503 Z"/>
    <path fill="#005249" fill-rule="nonzero" d="M18.11,19.3200003 C18.0074835,19.3201369 17.9100809,19.2752381 17.8436,19.1972 L16.6836,17.83825 C16.6013417,17.7432767 16.5763017,17.6114986 16.6179917,17.4929731 C16.6596817,17.3744476 16.7617043,17.2873623 16.8853053,17.2647976 C17.0089062,17.2422329 17.1351188,17.2876512 17.216,17.3838 L18.15405,18.48275 L21.22905,15.981 C21.3259503,15.9011694 21.4581861,15.8793556 21.5755925,15.9238339 C21.692999,15.9683122 21.7775882,16.072268 21.7972704,16.1962648 C21.8169526,16.3202616 21.7687123,16.4453017 21.67085,16.52395 L18.33085,19.2415 C18.2684963,19.2923655 18.1904691,19.3200998 18.11,19.3200003 Z"/>
    <path fill="#B78103" d="M12.5425,11.3317 C12.4653027,11.2499223 12.3535122,11.2102201 12.2420271,11.2249877 C12.1305419,11.2397554 12.0329435,11.3071937 11.9797,11.40625 L11.1347,12.97825 C11.0763758,13.0866799 11.0793132,13.2177803 11.1424352,13.3234892 C11.2055572,13.4291981 11.3195791,13.4939665 11.4427,13.49405 C11.5732767,13.4943405 11.6937292,13.4237575 11.7573,13.3097 L11.95,12.96235 L11.95,15.971 C11.95,16.1642997 12.1067003,16.321 12.3,16.321 C12.4932997,16.321 12.65,16.1642997 12.65,15.971 L12.65,12.45255 L12.9345,12.7603 C12.9976331,12.8277517 13.0850922,12.8671933 13.1774416,12.8698598 C13.269791,12.8725263 13.3593802,12.8381967 13.4263,12.7745 C13.4936574,12.7105612 13.532841,12.622473 13.535223,12.5296317 C13.537605,12.4367903 13.50299,12.3468087 13.439,12.2795 L12.5425,11.3317 Z"/>
  </g>
</svg>
